assets/Top hat/Flat/top_hat_flat.svg

<svg width="32" height="32" viewBox="0 0 32 32" fill="none" xmlns="http://www.w3.org/2000/svg">
<path d="M23.5 30.0001H8.5C4.91 30.0001 2 27.0908 2 23.5018C2 19.9128 4.91 17.0035 8.5 17.0035H23.5C27.09 17.0035 30 19.9128 30 23.5018C30 27.0908 27.09 30.0001 23.5 30.0001Z" fill="#321B41"/>
<path d="M6.80878 8.43937C6.71286 5.91161 7.85731 3.99182 10.3538 3.99182H21.6715C23.2285 3.99182 25.3272 5.16489 25.1768 8.35327C25.0564 10.904 24.6053 19.0412 24.3947 22.791H7.61077C7.3601 18.7705 6.88091 10.3403 6.80878 8.43937Z" fill="#533566"/>
<path d="M21.7174 21.7421H10.2824C8.88241 21.7421 7.86429 20.8014 7.42554 19.4718V23.0699C7.42554 24.5654 8.76866 25.7467 10.2768 25.7467H21.7218C23.2299 25.7467 24.573 24.5552 24.573 23.0699V19.533C24.1349 20.8626 23.1174 21.7421 21.7174 21.7421Z" fill="#F8312F"/>
</svg>

<svg xmlns="http://www.w3.org/2000/svg" width="32" height="32" fill="none"><path fill="#321B41" d="M23.5 30h-15a6.499 6.499 0 1 1 0-12.997h15A6.499 6.499 0 1 1 23.5 30Z"/><path fill="#533566" d="M6.809 8.44c-.096-2.528 1.048-4.448 3.545-4.448h11.318c1.556 0 3.655 1.173 3.505 4.361-.12 2.551-.572 10.688-.782 14.438H7.61c-.25-4.02-.73-12.45-.802-14.352Z"/><path fill="#F8312F" d="M21.717 21.742H10.282c-1.4 0-2.418-.94-2.856-2.27v3.598c0 1.495 1.343 2.677 2.85 2.677h11.446c1.508 0 2.851-1.192 2.851-2.677v-3.537c-.438 1.33-1.456 2.21-2.856 2.21Z"/></svg>
